!!!COM: Palestrina, Giovanni Perluigi da
!!!OPR: Dies sanctificatus
!!!OTL: Credo
**kern	**kern	**kern	**kern
*Ibass	*Itenor	*Icalto	*Icant
!Bassus	!Tenor	!Altus	!Cantus
*clefF4	*clefGv2	*clefG2	*clefG2
*k[]	*k[]	*k[]	*k[]
*G:mix	*G:mix	*G:mix	*G:mix
*M4/2	*M4/2	*M4/2	*M4/2
=1	=1	=1	=1
2r	1d	0r	0r
2G	.	.	.
2G	1d	.	.
2F	.	.	.
=2	=2	=2	=2
4E	1e	0r	0r
4F	.	.	.
4G	.	.	.
4E	.	.	.
2F	2d	.	.
2G	2B	.	.
=3	=3	=3	=3
1A	1c	1r	1r
2.G	2B	2r	1dd
.	2G	2g	.
8F	.	.	.
8E	.	.	.
=4	=4	=4	=4
1D	2A	2g	2dd
.	2B	2f	2dd
1C	1c	4e	1ee
.	.	4f	.
.	.	4g	.
.	.	4e	.
=5	=5	=5	=5
0r	2d	2f	2dd
.	2e	2g	2b
.	4A	1a	1cc
.	4B	.	.
.	4c	.	.
.	4d	.	.
=6	=6	=6	=6
0r	4e	1g	1b
.	4f	.	.
.	2.g	.	.
.	.	1d	2a
.	4f	.	.
.	2f	.	[2dd
=7	=7	=7	=7
1.A	1e	2r	2dd]
.	.	1e	4cc
.	.	.	4b
.	1r	.	1cc
2A	.	2f	.
=8	=8	=8	=8
2B	1r	2g	2r
2c	.	2e	1a
1d	2r	2.f	.
.	[2d	.	2a
.	.	8e	.
.	.	8f	.
=9	=9	=9	=9
2B	2d]	2g	2b
2A	2e	1a	2cc
1d	2f	.	1dd
.	2d	2f	.
=10	=10	=10	=10
0r	2e	2g	2b
.	1f	1a	2a
.	.	.	2.cc
.	2c	[2g	.
.	.	.	4b
=11	=11	=11	=11
1.D	1d	2g]	1a
.	.	4f	.
.	.	4e	.
.	2A	1f	1r
2D	2B	.	.
=12	=12	=12	=12
2E	2c	2r	1r
2F	2A	2d	.
2G	2B	2e	2r
2A	2c	2e	[2a
=13	=13	=13	=13
4D	2d	2f	2a]
4E	.	.	.
2F	2.c	2.a	2a
1E	.	.	2b
.	4B	4g	.
.	4A	[2g	2cc
.	4G	.	.
=14	=14	=14	=14
1D	1A	2g]	2dd
.	.	2f#	2dd
2r	1G	[1g	4b
.	.	.	4cc
2G	.	.	4dd
.	.	.	4b
=15	=15	=15	=15
2c	1r	0g]	2.ee
1c	.	.	.
.	.	.	8dd
.	.	.	8cc
.	1G	.	1dd
2B	.	.	.
=16	=16	=16	=16
2e	2c	1r	1g
2e	1c	.	.
1d	.	1G	1r
.	2B	.	.
=17	=17	=17	=17
2.c	2e	2g	2r
.	2e	1g	2g
4B	.	.	.
1A	1c	.	2cc
.	.	2f	[2cc
=18	=18	=18	=18
1G	[0g	2e	2cc]
.	.	2d	2b
1C	.	2c	2ee
.	.	[2cc	2ee
=19	=19	=19	=19
1G	1g]	2cc]	1dd
.	.	2b	.
[1A	[1e	[1a	[1cc
=20	=20	=20	=20
2A]	1e]	2a]	2cc]
2E	.	2g	2b
1F	1c	1f	1a
=21	=21	=21	=21
1C	2c	2e	2g
.	2.e	2.cc	2.gg
1r	.	.	.
.	4e	4cc	4gg
.	2e	2b	2gg
=22	=22	=22	=22
0r	2f	2a	2cc
.	2d	2b	2dd
.	2c	2.cc	2.ee
.	2A	.	.
.	.	4b	4dd
=23	=23	=23	=23
1r	2A	2a	2cc
.	2e	2g#	2b
2r	1f	1a	[1a
[2d	.	.	.
=24	=24	=24	=24
2d]	2r	2f	1a]
2c	2a	2e	.
2B	2g	2d	1r
2A	2f	2a	.
=25	=25	=25	=25
2.c	2e	1g	0r
.	2.g	.	.
4B	.	.	.
1A	.	2c	.
.	8f#	.	.
.	8e	.	.
.	2f#	[2cc	.
=26	=26	=26	=26
1G	2g	2cc]	2r
.	2g	2b	1dd
1r	2f	2a	.
.	2e	2g	2cc
=27	=27	=27	=27
0r	2d	2f	2b
.	2f	2.a	2a
.	2e	.	1cc
.	.	4g	.
.	2c	[2g	.
=28	=28	=28	=28
1r	1d	2g]	2b
.	.	2f	2a
2r	2r	1e	[1g
2c	2c	.	.
=29	=29	=29	=29
2B	2d	1r	1g]
2G	2e	.	.
1A	1f#	2r	2r
.	.	2c	2cc
=30	=30	=30	=30
1G	2.g	2d	2b
.	.	2e	2g
.	8f	.	.
.	8e	.	.
1r	1d	1f#	1a
=31	=31	=31	=31
2r	2r	1g	1g
2G	2g	.	.
2A	2f	1r	1r
2B	2d	.	.
=32	=32	=32	=32
2.c	2.e	2r	2r
.	.	2g	2cc
4c	4e	.	.
1d	1d	2f	2a
.	.	2d	2b
=33	=33	=33	=33
2r	1r	2.e	2.cc
1c	.	.	.
.	.	4e	4cc
.	2r	1d	1dd
2B	[2g	.	.
=34	=34	=34	=34
1A	2g]	1r	2r
.	2f	.	1cc
1G	2e	2r	.
.	4d	[2g	2b
.	4c	.	.
=35	=35	=35	=35
1D	1d	2g]	1a
.	.	2f	.
2.E	2B	1e	[1g
.	[2c	.	.
4F	.	.	.
=36	=36	=36	=36
1G	4c]	2d	2g]
.	8B	.	.
.	8A	.	.
.	2B	2.e	2g
1A	1c	.	2e
.	.	4d	.
.	.	2c	2f#
=37	=37	=37	=37
0G	2d	2B	0g
.	2.c	2e	.
.	.	1d	.
.	8B	.	.
.	8A	.	.
.	2B	.	.
=38	=38	=38	=38
0C	1c	1e	1g
.	2.c	2.g	2.ee
.	4c	4g	4ee
=39	=39	=39	=39
0r	2c	2cc	2ee
.	2g	2b	2dd
.	1d	1a	1ff
=40	=40	=40	=40
0r	1a	1cc	2ee
.	.	.	1cc
.	1f	1a	.
.	.	.	2dd
=41	=41	=41	=41
0r	2g	2b	1ee
.	1a	1cc	.
.	.	.	1ee
.	2g	2b	.
=42	=42	=42	=42
0r	2f	2a	2dd
.	2e	2g	2cc
.	4d	4f	4dd
.	4e	4g	4cc
.	2f	[2a	4cc
.	.	.	8b
.	.	.	8a
=43	=43	=43	=43
1r	0e	4a]	1b
.	.	8g#	.
.	.	8f#	.
.	.	2g#	.
1A	.	2a	2a
.	.	2e	2cc
=44	=44	=44	=44
1G	2r	1g	1b
.	2e	.	.
2.B-	1d	2f	2.dd
.	.	2g	.
4B-	.	.	4dd
=45	=45	=45	=45
2A	2f	2a	1cc
4F	2f	1a	.
4G	.	.	.
4A	1e	.	1cc
4B	.	.	.
[2c	.	2g	.
=46	=46	=46	=46
2c]	2d	1G	1dd
2B	2d	.	.
[1c	1c	2r	[1ee
.	.	2e	.
=47	=47	=47	=47
1c]	2r	2.g	1ee]
.	2e	.	.
.	.	4f	.
1r	[1g	1e	2r
.	.	.	2b
=48	=48	=48	=48
0r	2g]	1d	1dd
.	2f	.	.
.	2.e	2.g	2cc
.	.	.	2b
.	4d	4f	.
=49	=49	=49	=49
0r	2c	2e	2.a
.	2.d	2.f	.
.	.	.	8g
.	.	.	8a
.	.	.	4b-
.	4c	4e	4a
.	4c	4e	[2a
.	8B-	8d	.
.	8A	8c	.
=50	=50	=50	=50
2r	2B-	2d	2a]
2d	2B-	2d	2g
2d	2A	1e	[1a
2c#	2e	.	.
=51	=51	=51	=51
1d	1.f	2r	0a]
.	.	2a	.
2A	.	[1cc	.
2A	4e	.	.
.	4d	.	.
=52	=52	=52	=52
1.c	1.e	2cc]	1r
.	.	2b	.
.	.	2a	2r
2B	2d	2g	2b
=53	=53	=53	=53
1A	2c	2a	1cc
.	2A	2.e	.
2G	2B	.	2b
.	.	4d	.
[2A	[2c	[2f	2a
=54	=54	=54	=54
4A]	2c]	4f]	2a
4G	.	4e	.
2E	2B	1e	2g
1F	2.A	.	1a
.	.	2d	.
.	4B	.	.
=55	=55	=55	=55
0C	2c	[0e	1g
.	2g	.	.
.	1g	.	2r
.	.	.	2gg
=56	=56	=56	=56
2r	2.c	1e]	1gg
2c	.	.	.
.	4d	.	.
1c	1e	2r	2.cc
.	.	2cc	.
.	.	.	4b
=57	=57	=57	=57
1.F	1f	1cc	4a
.	.	.	4g
.	.	.	1a
.	[1c	2f	.
2E	.	2g	2g
=58	=58	=58	=58
1F	1c]	1a	1f
1C	1c	1g	1e
=59	=59	=59	=59
1r	1r	1r	1r
1G	1B	1d	1g
=60	=60	=60	=60
1D	1d	1f#	1a
1G	2d	1g	1b
.	[2d	.	.
=61	=61	=61	=61
1F	2d]	1a	1cc
.	2.c	.	.
1D	.	1f	1dd
.	8B	.	.
.	8A	.	.
.	2B	.	.
=62	=62	=62	=62
4C	2c	4e	1ee
4D	.	4f	.
4E	1G	4g	.
4F	.	4a	.
2G	.	2b	1dd
2G	[2g	2b	.
=63	=63	=63	=63
1d	2g]	1a	1dd
.	2f#	.	.
2G	1g	2b	2dd
2G	.	2b	2dd
=64	=64	=64	=64
1c	1e	1cc	1g
1F	2f	2a	2cc
.	[2f	[2a	[2cc
=65	=65	=65	=65
0r	2f]	2a]	2cc]
.	2e	2g	2cc
.	2d	2a	2ff
.	2c	2cc	2ee
=66	=66	=66	=66
1r	2g	2b	2dd
.	2a	2a	2cc
[1G	1g	1b	1dd
=67	=67	=67	=67
1G]	1g	1b	1dd
[1c	[1g	[1cc	[1ee
=68	=68	=68	=68
1c]	1g]	1cc]	1ee]
1d	1f#	1a	1dd
=69	=69	=69	=69
0G	2g	2.g	0b
.	2d	.	.
.	.	4f	.
.	2.g	2e	.
.	.	2d	.
.	4f	.	.
=70	=70	=70	=70
0A	2e	2c#	0a
.	1d	2d	.
.	.	1e	.
.	2c#	.	.
=71	=71	=71	=71
0D	0d	0f#	0a
!! Crucifixus
*Icalto	*Icalto	*Icant	*Icant
!Altus 2	!Altus 1	!Cantus 2	!Cantus 1
*clefG2	*clefG2	*clefG2	*clefG2
*k[]	*k[]	*k[]	*k[]
*G:mix	*G:mix	*G:mix	*G:mix
*M4/2	*M4/2	*M4/2	*M4/2
=72	=72	=72	=72
1r	0r	0r	0dd
1d	.	.	.
=73	=73	=73	=73
1e	0r	0r	1b
1f#	.	.	1a
=74	=74	=74	=74
1g	0r	0r	2g
.	.	.	2b
2e	.	.	2cc
2f#	.	.	4dd
.	.	.	4cc
=75	=75	=75	=75
4g	0r	0r	4b
4f#	.	.	4a
4e	.	.	2g
4d	.	.	.
4c	.	.	1cc
4B	.	.	.
2A	.	.	.
=76	=76	=76	=76
2G	1r	0dd	2.b
1g	.	.	.
.	.	.	8a
.	.	.	8g
.	1d	.	1a
2f#	.	.	.
=77	=77	=77	=77
1g	1e	1b	4g
.	.	.	4a
.	.	.	4b
.	.	.	4cc
1d	1f#	1a	[1dd
=78	=78	=78	=78
0r	1g	2g	1dd]
.	.	2b	.
.	2e	2cc	1r
.	2f#	4dd	.
.	.	4cc	.
=79	=79	=79	=79
1.e	4g	4b	1.g
.	4f#	4a	.
.	4e	2g	.
.	4d	.	.
.	4c	1cc	.
.	4B	.	.
2f#	2A	.	2a
=80	=80	=80	=80
2g	2G	2b	2b
2e	1g	4a	2cc
.	.	4g	.
1d	.	1a	1dd
.	2f#	.	.
=81	=81	=81	=81
2G	[0g	2dd	2b
2G	.	2dd	2b
2.c	.	2.cc	2.ee
4c	.	4cc	4ee
=82	=82	=82	=82
2c	1g]	2cc	2ee
2B	.	2dd	2dd
1A	2r	2.ee	2.cc
.	2e	.	.
.	.	4dd	4dd
=83	=83	=83	=83
1A	2.a	4cc	4ee
.	.	4b	8dd
.	.	.	8ee
.	.	1cc	2.ff
.	4a	.	.
1r	2a	.	.
.	.	.	4ee
.	2g	2b	[2ee
=84	=84	=84	=84
2r	1f	1a	2ee]
1a	.	.	2dd
.	1e	2b	1ee
2g#	.	[2ee	.
=85	=85	=85	=85
2a	0r	2ee]	1r
2f	.	2dd	.
2.e	.	2ee	2r
.	.	2cc	[2ee
4f	.	.	.
=86	=86	=86	=86
2g	2r	2b	2ee]
2f	1a	2a	2dd
1e	.	2b	2ee
.	2g#	[2ee	2b
=87	=87	=87	=87
2A	2a	2ee]	2cc
2d	2f	2dd	4a
.	.	.	4b
[1c	2.e	2ee	4cc
.	.	.	4dd
.	.	2cc	[2ee
.	4f	.	.
=88	=88	=88	=88
2c]	2g	4cc	2ee]
.	.	4b	.
2d	2f	4a	1dd
.	.	4g	.
1A	1e	2a	.
.	.	2a	2cc#
=89	=89	=89	=89
1d	2r	2a	2dd
.	2f#	2dd	2a
1r	2.g	2.dd	2.b
.	4g	4dd	4b
=90	=90	=90	=90
0r	2g	2dd	2b
.	2c	2cc	2ee
.	2g	2b	2dd
.	2e	2g	2ee
=91	=91	=91	=91
0r	4d	1a	1ff
.	4e	.	.
.	4f	.	.
.	4g	.	.
.	4a	2.cc	1ee
.	4b	.	.
.	[2cc	.	.
.	.	4dd	.
=92	=92	=92	=92
1r	2cc]	4ee	2a
.	.	4ff	.
.	2b	1gg	2dd
2r	1a	.	2ee
2d	.	2ff#	4dd
.	.	.	4cc
=93	=93	=93	=93
2e	1g	2gg	1b
1g	.	2dd	.
.	2r	2ee	2a
2f#	2d	4dd	2a
.	.	4cc	.
=94	=94	=94	=94
1g	2e	1b	4g
.	.	.	4a
.	1g	.	4b
.	.	.	4cc
1d	.	2a	2.dd
.	2f#	2a	.
.	.	.	4cc
=95	=95	=95	=95
2G	1g	4g	1b
.	.	4a	.
2.g	.	4b	.
.	.	4cc	.
.	2d	1dd	1a
8f#	.	.	.
8e	.	.	.
2f#	2d	.	.
=96	=96	=96	=96
1g	2.e	1b	2r
.	.	.	2g
.	4f#	.	.
1r	2g	1r	2b
.	2a	.	2cc
=97	=97	=97	=97
1r	2b	0r	2dd
.	2cc	.	2ee
1d	1a	.	1ff#
=98	=98	=98	=98
2.e	1g	2r	1gg
.	.	2g	.
4f#	.	.	.
2g	1r	2b	1r
2a	.	2cc	.
=99	=99	=99	=99
2b	1r	2dd	1r
2cc	.	2ee	.
1a	2r	1ff#	2r
.	2d	.	2dd
=100	=100	=100	=100
1g	2e	1gg	2cc
.	2g	.	2b
2r	2f	2r	2a
2g	2e	2gg	2cc
=101	=101	=101	=101
2a	2d	2ff	2dd
2cc	2c	2ee	2gg
2b	2g	2dd	2gg
2a	2a	2cc	2ff
=102	=102	=102	=102
2g	2e	2b	2ee
1a	2f	2a	2dd
.	1e	1b	[1ee
2g#	.	.	.
=103	=103	=103	=103
0a	2r	1cc	1ee]
.	2a	.	.
.	[1cc	1ee	2r
.	.	.	2a
=104	=104	=104	=104
0r	2cc]	2ee	2cc
.	2b	2dd	2dd
.	1a	1cc	2ee
.	.	.	2ee
=105	=105	=105	=105
0r	2g	2b	2ee
.	1a	1cc	2.ff
.	.	.	4ee
.	2e	2b	[2ee
=106	=106	=106	=106
2r	1f	1a	2ee]
2a	.	.	2dd
[1cc	2.c	2r	1ee
.	.	2ee	.
.	4d	.	.
=107	=107	=107	=107
2cc]	1e	1gg	2r
2b	.	.	2b
2a	1r	2ff	2cc
2a	.	[2ee	2cc
=108	=108	=108	=108
2g#	2r	4ee]	2b
.	.	4dd	.
2.a	2a	4cc	2ee
.	.	4b	.
.	2cc	2a	2ff
4g	.	.	.
2e	2b	2g	[2ee
=109	=109	=109	=109
1f	2a	2cc	2ee]
.	1a	4b	2dd
.	.	4a	.
1e	.	1b	[1ee
.	2g#	.	.
=110	=110	=110	=110
2r	1a	1cc	0ee]
1a	.	.	.
.	1e	1b	.
[2g	.	.	.
=111	=111	=111	=111
2g]	1d	1dd	1a
2f	.	.	.
[1g	2c	2ee	2cc
.	2B	2dd	2dd
=112	=112	=112	=112
1g]	1.c	1.cc	1.ee
1g	.	.	.
.	2G	2b	2dd
=113	=113	=113	=113
1g	1G	2.b	1dd
.	.	4a	.
2r	2r	1g	1b
[2e	[2g	.	.
=114	=114	=114	=114
2e]	2g]	0r	2cc
2f	2a	.	1dd
1g	1b	.	.
.	.	.	[2ee
=115	=115	=115	=115
1a	1cc	1r	2ee]
.	.	.	2ff
1g	1b	2r	2ee
.	.	2b	[2dd
=116	=116	=116	=116
2e	2g	1cc	4dd]
.	.	.	4cc
2f	2a	.	1cc
1d	1f	1dd	.
.	.	.	2b
=117	=117	=117	=117
1c	2g	0ee	1cc
.	1e	.	.
2g	.	.	2b
2a	2a	.	2cc
=118	=118	=118	=118
1b	1g	2r	1dd
.	.	2gg	.
2cc	1c	[1gg	1ee
2cc	.	.	.
=119	=119	=119	=119
2b	1d	2gg]	1dd
1a	.	2ff	.
.	2e	1ee	2b
[2g	2c	.	2cc
=120	=120	=120	=120
2g]	0d	0dd	0a
4e	.	.	.
4f#	.	.	.
1f#	.	.	.
=121	=121	=121	=121
0g	0G	0dd	0b
!! Et in Spiritum
*Ibass	*Itenor	*Icalto	*Icant
!Bassus	!Tenor	!Altus	!Cantus
*clefF4	*clefGv2	*clefG2	*clefG2
*k[]	*k[]	*k[]	*k[]
*G:mix	*G:mix	*G:mix	*G:mix
*M4/2	*M4/2	*M4/2	*M4/2
=122	=122	=122	=122
1G	1d	1g	1b
2c	2e	2g	2cc
[2c	[2e	[2g	[2cc
=123	=123	=123	=123
4c]	4e]	4g]	4cc]
4c	4e	4g	4cc
2B	2d	2g	2dd
[1c	4c	4g	[1ee
.	4d	4f	.
.	4e	4e	.
.	4f	4d	.
=124	=124	=124	=124
2c]	2g	2c	2ee]
2B	2G	2d	2dd
2A	2.c	2e	2cc
2A	.	2f#	2cc
.	4c	.	.
=125	=125	=125	=125
1G	1d	1g	1b
2.A	1c	1e	2r
.	.	.	2cc
4G	.	.	.
=126	=126	=126	=126
4F	2f	2a	2cc
4G	.	.	.
4A	1f	1a	1cc
4B	.	.	.
1c	.	.	.
.	2e	2g	2ee
=127	=127	=127	=127
1r	2.f	1a	4dd
.	.	.	4cc
.	.	.	2.cc
.	4e	.	.
1G	1d	2.g	.
.	.	.	8b
.	.	.	8a
.	.	.	2b
.	.	4f	.
=128	=128	=128	=128
0c	2c	2e	2cc
.	1g	1cc	1ee
.	2g	2cc	2ee
=129	=129	=129	=129
1c	1g	1cc	1ee
1c	1e	1g	2cc
.	.	.	[2cc
=130	=130	=130	=130
1.G	1.d	1.g	2cc]
.	.	.	4b
.	.	.	4a
.	.	.	2b
2D	2d	2f	2a
=131	=131	=131	=131
2D	4d	1.f	2a
.	4e	.	.
4D	4f	.	2.a
4E	4g	.	.
4F	1a	.	.
4G	.	.	4b
4A	.	[2e	4cc
4B	.	.	4dd
=132	=132	=132	=132
2c	2g	2e]	2ee
2G	2g	2d	2b
1A	2e	1c	1cc
.	2f#	.	.
=133	=133	=133	=133
1G	1g	2d	2b
.	.	1g	1b
1r	2e	.	.
.	2a	2a	2cc
=134	=134	=134	=134
0r	1g	1b	1dd
.	2c	2cc	2ee
.	2d	2a	2dd
=135	=135	=135	=135
1r	2e	2.g	2b
.	2c	.	2cc
.	.	4g	.
2r	2d	2f#	2a
[2G	[2d	[2g	[2b
=136	=136	=136	=136
2G]	2d]	2g]	2b]
2G	2d	2g	2b
2E	2e	2g	2b
2D	2f#	2a	2dd
=137	=137	=137	=137
0G	0g	0b	0dd
=138	=138	=138	=138
1C	1g	1cc	1ee
2r	2r	2r	2r
2C	2e	2g	2cc
=139	=139	=139	=139
2C	2e	2g	2cc
2C	2e	2g	2cc
2G	2d	2g	2b
2E	[2c	2g	2cc
=140	=140	=140	=140
1D	2c]	2.f	1dd
.	2B	.	.
.	.	8e	.
.	.	8d	.
2C	1c	2g	2ee
[2c	.	2g	[2ee
=141	=141	=141	=141
2c]	2g	2c	2ee]
2B	2g	2d	2dd
2A	2c	2e	2cc
2A	2c	2f#	2a
=142	=142	=142	=142
2G	2d	2g	2b
2F	2f	2a	1cc
1G	2e	1g	.
.	[2d	.	2b
=143	=143	=143	=143
0A	2d]	1e	1a
.	4c#	.	.
.	4B	.	.
.	1c#	1e	2a
.	.	.	2ee
=144	=144	=144	=144
1D	2d	2r	1.ff
.	2d	2a	.
1r	2A	2cc	.
.	2c	2cc	2ee
=145	=145	=145	=145
0r	1G	1b	1dd
.	2A	2a	2cc
.	2G	2b	[2dd
=146	=146	=146	=146
0r	2d	4b	4dd]
.	.	4a	4cc
.	2f	1a	2a
.	2e	.	2.b
.	[2e	2g#	.
.	.	.	4b
=147	=147	=147	=147
1A	2e]	1a	1a
.	1f	.	.
[1c	.	2r	1r
.	4e	2g	.
.	4d	.	.
=148	=148	=148	=148
2c]	2e	2g	2r
2B	2d	2g	2b
2A	2c	2f	2cc
2A	2c	2e	2cc
=149	=149	=149	=149
2G	2d	2g	2b
2.A	2.c	2e	2a
.	.	4f	2a
4G	8B	4e	.
.	8A	.	.
2E	2B	[2e	2g#
=150	=150	=150	=150
2F	2A	2e]	2a
2F	2A	2d	2a
1E	1B	1e	1g#
=151	=151	=151	=151
2r	2r	2r	2r
2A	2c#	2e	2a
2A	2c#	2e	2a
2A	2c#	2f#	2a
=152	=152	=152	=152
2G	2d	2g	2b
2G	2d	2g	2b
2F	2f	2a	2cc
4F	2f	2a	4a
4G	.	.	4b
=153	=153	=153	=153
4A	1c	2a	4cc
4B	.	.	4dd
1c	.	2g	2ee
.	1G	2r	1dd
2B	.	[2g	.
=154	=154	=154	=154
1c	2r	2g]	1ee
.	1g	2g	.
1r	.	2.c	2r
.	2g	.	[2gg
.	.	4d	.
=155	=155	=155	=155
0r	2.c	2.e	2gg]
.	.	.	2gg
.	4d	4f	.
.	2e	2g	2cc
.	2f	2a	2dd
=156	=156	=156	=156
0r	2g	2b	1ee
.	2a	2cc	.
.	2f	2a	1dd
.	2g	2b	.
=157	=157	=157	=157
0r	1c	4a	2cc
.	.	4g	.
.	.	1g	2b
.	1d	.	1a
.	.	2f#	.
=158	=158	=158	=158
2r	2r	2g	2b
1c	1e	1g	1cc
2c	2e	2g	2cc
=159	=159	=159	=159
1F	1f	1a	1cc
1G	1d	1g	1b
=160	=160	=160	=160
2A	2c	2e	2r
2A	2e	2a	1cc
[1F	2.f	[1a	.
.	.	.	2cc
.	8e	.	.
.	8d	.	.
=161	=161	=161	=161
2F]	2c	2a]	2f
2E	2c	2g	2g
2F	2c	2f	2a
2D	2d	2f	2a
=162	=162	=162	=162
2F	2c	2f	2a
2C	2c	2e	2g
1D	2A	1a	1f
.	[2d	.	.
=163	=163	=163	=163
0A	2d]	0a	0e
.	4c#	.	.
.	4B	.	.
.	1c#	.	.
!! Et vitam
*Ibass	*Itenor	*Icalto	*Icant
!Bassus	!Tenor	!Altus	!Cantus
*clefF4	*clefGv2	*clefG2	*clefG2
*k[]	*k[]	*k[]	*k[]
*G:mix	*G:mix	*G:mix	*G:mix
*M3/2	*M3/2	*M3/2	*M3/2
=164	=164	=164	=164
2E	2e	2g#	2b
1A	1e	1a	1cc
=165	=165	=165	=165
1G	1g	1b	1dd
2r	2g	2b	2dd
=166	=166	=166	=166
1r	1c	1cc	1ee
2r	2c	2cc	2ee
=167	=167	=167	=167
1r	2g	2.b	2.dd
.	2d	.	.
.	.	4a	4cc
2r	2e	2g#	2b
=168	=168	=168	=168
1r	2.A	2.a	2.cc
.	4B	4g	4b
2r	2c	4e	4g
.	.	4f#	4a
=169	=169	=169	=169
1r	2G	1g	2b
.	1d	.	1a
2r	.	2f#	.
=170	=170	=170	=170
2G	2B	2g	2dd
1C	1c	2g	1ee
.	.	2g	.
=171	=171	=171	=171
1G	1B	1g	1dd
2G	2d	2g	2b
=172	=172	=172	=172
1c	1e	1g	1cc
2C	2e	2g	2cc
=173	=173	=173	=173
2G	2.d	2g	2.b
2D	.	2f	.
.	4c	.	4a
2E	2B	2e	[2g
=174	=174	=174	=174
2.C	2.c	2.e	2g]
.	.	.	2.a
4D	4B	4d	.
[2E	[2G	4B	.
.	.	4c	4g
=175	=175	=175	=175
2E]	2G]	1.d	1g
1D	1A	.	.
.	.	.	2f#
=176	=176	=176	=176
1.G	1.B	1.d	1.g
==	==	==	==
*-	*-	*-	*-
!!!CDT: 1525/^1526/-1594/2/2
!!!OCY: Italia
!!!AGN: Mass (Parody)
!!!AST: renaissance, vocal
!!!ASW: Motet 1563 (Palestrina)
!!!PWK: Masses, Book 6
!!!RNB: Cadence finals: D,A,C
!!!YOR: Le Opere Complete, v. 21, p. 1
!!!YOO: Rome, Italy: Fratelli Scalera
!!!END: 1992//
!!!EED: John Miller
!!!YEC: Copyright 2000, John Miller
!!!YEN: United States of America
!!!YEM: Rights to all derivative electronic formats reserved.
!!!YEM: Refer to licensing agreement for further details.
!!!YEM: This file must be accompanied by the licensing agreement.
!!!YEM: A copy of the licensing agreement may be found at http://www.music-cog.ohio-state.edu/HumdrumDatabases/Palestrina/license.txt
!!!EMD: converted to Humdrum by Bret Aarden
